!!!OTL: Hongjun dao jinzhai
!!!ARE: Asia, China,ÿAnhui Jinzhai
!! III, 553, 1)
!!!SCT: C2056
!!!YEM: Copyright 1995, estate of Helmut Schaffrath.
**kern
*ICvox
*Ivox
*M2/4
*k[b-e-]
*B-:
{8b-
16b-
16g
8b-
16b-
16g
=1
16g
16b-
4f
8g
=2
16g
8b-
16cc
8b-
16b-
16g
=3
2b-}
=4
{8f
8d
4f
=5
8g
8cc
4b-
=6
8g
8b-
8d
16c
16d
=7
4f
8b-
8g
=8
4f
4r}
==
!!!AGN: Xiaodiao
!!!AMT: simple duple
!!!AIN: vox
!!!EED: Helmut Schaffrath
!!!EEV: 1.0
*-
